Catalina-light/actions/22/text-field.svg

<svg viewBox="0 0 22 22" xmlns="http://www.w3.org/2000/svg">
<defs>
<style id="current-color-scheme" type="text/css">.ColorScheme-Text {
        color:#4d4d4d;
      }</style>
</defs>
<path class="ColorScheme-Text" d="m3 3v1h2v14h-2v1h5v-1h-2v-14h2v-1h-5zm5 12v2h11v-2h-1v1h-9v-1h-1z" fill="currentColor"/>
</svg>

<svg xmlns="http://www.w3.org/2000/svg" viewBox="0 0 22 22">
  <defs id="defs3051">
    <style type="text/css" id="current-color-scheme">
      .ColorScheme-Text {
        color:#4d4d4d;
      }
      </style>
  </defs>
 <path 
     style="fill:currentColor;fill-opacity:1;stroke:none" 
     d="M 3 3 L 3 4 L 5 4 L 5 18 L 3 18 L 3 19 L 8 19 L 8 18 L 6 18 L 6 4 L 8 4 L 8 3 L 3 3 z M 8 15 L 8 17 L 9 17 L 18 17 L 19 17 L 19 16 L 19 15 L 18 15 L 18 16 L 9 16 L 9 15 L 8 15 z "
	 class="ColorScheme-Text"
     />
</svg>
